X:1
T:Menuett & Trio
T:Menuett & Trio
T:k 1
T:Wolfgang Amadeus Mozart
C:Wolfgang Amadeus Mozart
%%score 1 2
L:1/8
Q:1/4=144
M:3/4
K:G
V:1 treble 
V:2 bass 
V:1
 bg | B2 c2 d2 | (d2 c2) af | A2 B2 c2 | (c2 B2) bg | e2 ge ^c2 | e^cAG F2 | (3BAG TF2 E2 | D4 :: %9
 dB | ^G2 =f2 e2 | (d2 c2) cA | F2 e2 d2 | c2 B2 ec | A2 cA F2 | DFAc B2 | (3ecA G2 F2 | G4 :: %18
[K:C]"^Trio" cG | E2 E2 DE | E2 F2 dB | F2 F2 ED | D2 E2 e/d/c/B/ | A2 a2 d/c/B/A/ | %24
 G2 g2 d/B/A/G/ | (e2 d2) ^F2 | (A2 G2) :: ge | ^c2 c2 de | (e2 f2) fd | B2 B2 cd | %31
 (d2 e2) a/g/f/e/ | d2 d'2 g/f/e/d/ | c2 c'2 g/e/d/c/ | a2 g2 B2 | d2 c2 :| %36
V:2
 z2 | G,2 A,2 B,2 | (B,2 A,2) z2 | F,2 G,2 A,2 | (A,2 G,2) z2 | G,4 E,2 | ^C,2 A,,2 D,2 | %7
 G,2 A,2 A,,2 | D,2 D,,2 :: z2 | E,2 D2 C2 | (B,2 A,2) A,F, | D,2 C2 B,2 | A,2 G,2 z2 | C4 A,2 | %15
 F,2 D,2 G,2 | C2 D2 D,2 | G,4 ::[K:C] C,E, | [C,G,]2 [C,G,]2 [B,,G,-][C,G,] | %20
 [C,G,-]2 [D,G,]2 [B,,G,-][D,G,] | [B,,G,]2 [B,,G,]2 [B,,G,]2 | [C,G,]4 C/B,/A,/G,/ | %23
 ^F,4 B,/A,/G,/F,/ | E,4 B,2 | C2 D2 D,2 | G,4 :: z2 | A,2 [G,A,]2 [F,A,-][E,A,] | %29
 ([E,A,-]2 [D,A,]2) z2 | G,2 [F,G,]2 [E,G,-][D,G,] | ([D,G,-]2 [C,G,]2) F/E/D/C/ | B,4 E/D/C/B,/ | %33
 A,4 E,2 | F,2 G,2 G,,2 | C,4 :| %36

